assets/1. Faces/Face savoring food/Color/face_savoring_food_color.svg

<svg width="100%" height="100%" viewBox="0 0 32 32" fill="none" xmlns="http://www.w3.org/2000/svg">
<path d="M15.9989 29.9978C25.3333 29.9978 29.9978 23.7303 29.9978 15.9989C29.9978 8.26751 25.3333 2 15.9989 2C6.66443 2 2 8.26751 2 15.9989C2 23.7303 6.66443 29.9978 15.9989 29.9978Z" fill="url(#paint0_radial_31_15)"/>
<path d="M15.9989 29.9978C25.3333 29.9978 29.9978 23.7303 29.9978 15.9989C29.9978 8.26751 25.3333 2 15.9989 2C6.66443 2 2 8.26751 2 15.9989C2 23.7303 6.66443 29.9978 15.9989 29.9978Z" fill="url(#paint1_radial_31_15)"/>
<path d="M15.9989 29.9978C25.3333 29.9978 29.9978 23.7303 29.9978 15.9989C29.9978 8.26751 25.3333 2 15.9989 2C6.66443 2 2 8.26751 2 15.9989C2 23.7303 6.66443 29.9978 15.9989 29.9978Z" fill="url(#paint2_radial_31_15)"/>
<path d="M15.9989 29.9978C25.3333 29.9978 29.9978 23.7303 29.9978 15.9989C29.9978 8.26751 25.3333 2 15.9989 2C6.66443 2 2 8.26751 2 15.9989C2 23.7303 6.66443 29.9978 15.9989 29.9978Z" fill="url(#paint3_radial_31_15)" fill-opacity="0.6"/>
<path d="M15.9989 29.9978C25.3333 29.9978 29.9978 23.7303 29.9978 15.9989C29.9978 8.26751 25.3333 2 15.9989 2C6.66443 2 2 8.26751 2 15.9989C2 23.7303 6.66443 29.9978 15.9989 29.9978Z" fill="url(#paint4_radial_31_15)"/>
<path d="M15.9989 29.9978C25.3333 29.9978 29.9978 23.7303 29.9978 15.9989C29.9978 8.26751 25.3333 2 15.9989 2C6.66443 2 2 8.26751 2 15.9989C2 23.7303 6.66443 29.9978 15.9989 29.9978Z" fill="url(#paint5_radial_31_15)"/>
<path d="M15.9989 29.9978C25.3333 29.9978 29.9978 23.7303 29.9978 15.9989C29.9978 8.26751 25.3333 2 15.9989 2C6.66443 2 2 8.26751 2 15.9989C2 23.7303 6.66443 29.9978 15.9989 29.9978Z" fill="url(#paint6_radial_31_15)"/>
<path d="M15.9989 29.9978C25.3333 29.9978 29.9978 23.7303 29.9978 15.9989C29.9978 8.26751 25.3333 2 15.9989 2C6.66443 2 2 8.26751 2 15.9989C2 23.7303 6.66443 29.9978 15.9989 29.9978Z" fill="url(#paint7_radial_31_15)"/>
<g opacity="0.5" filter="url(#filter0_f_31_15)">
<path d="M7.5 11.5C7.5 11.5 7.75 9.5 10 9.5C12.25 9.5 12.5 11.5 12.5 11.5" stroke="#9A4609" stroke-width="2" stroke-linecap="round"/>
</g>
<g opacity="0.5" filter="url(#filter1_f_31_15)">
<path d="M18.5 11.5C18.5 11.5 19 9.5 21 9.5C23 9.5 23.5 11.5 23.5 11.5" stroke="#9A4609" stroke-width="2" stroke-linecap="round"/>
</g>
<path d="M8 11C8 11 8.25 9 10.5 9C12.75 9 13 11 13 11" stroke="#43273B" stroke-width="2" stroke-linecap="round" stroke-linejoin="round"/>
<g opacity="0.26" filter="url(#filter2_f_31_15)">
<path d="M8.25 10.75C8.25 10.75 8.5 8.75 10.75 8.75C13 8.75 13.25 10.75 13.25 10.75" stroke="white" stroke-width="0.75" stroke-linecap="round" stroke-linejoin="round"/>
</g>
<path d="M19 11C19 11 19.5 9 21.5 9C23.5 9 24 11 24 11" stroke="#43273B" stroke-width="2" stroke-linecap="round" stroke-linejoin="round"/>
<g opacity="0.26" filter="url(#filter3_f_31_15)">
<path d="M19.25 10.75C19.25 10.75 19.5 8.75 21.75 8.75C24 8.75 24.25 10.75 24.25 10.75" stroke="white" stroke-width="0.75" stroke-linecap="round" stroke-linejoin="round"/>
</g>
<path d="M11.62 18.5H18.1L23.5 21.5L19.72 29.5L10 26L11.62 18.5Z" fill="url(#paint8_radial_31_15)"/>
<path d="M18.3683 22.3683L15.5 19.5L23.5 16L24.455 18.292C25.2894 20.2946 24.2473 22.5842 22.1892 23.2703C20.8475 23.7175 19.3683 23.3683 18.3683 22.3683Z" fill="url(#paint9_linear_31_15)"/>
<path d="M9 16C9.5 16.6667 11.5 18.5 16 18.5C20.5 18.5 22.5 16.6667 23 16" stroke="url(#paint10_radial_31_15)" stroke-width="2" stroke-linecap="round"/>
<path fill-rule="evenodd" clip-rule="evenodd" d="M18.1755 22.1755L18.3683 22.3683C19.3683 23.3683 20.8475 23.7175 22.1892 23.2703C24.2473 22.5842 25.2894 20.2946 24.455 18.292L24.1878 17.6508C23.5591 17.2393 22.8075 17 22 17C21.5762 17 21.1679 17.0659 20.7846 17.188L20.0286 17.5187C18.8173 18.2062 18 19.5076 18 21C18 21.4091 18.0614 21.8038 18.1755 22.1755Z" fill="url(#paint11_radial_31_15)"/>
<defs>
<filter id="filter0_f_31_15" x="5" y="7" width="10" height="7.00012" filterUnits="userSpaceOnUse" color-interpolation-filters="sRGB">
<feFlood flood-opacity="0" result="BackgroundImageFix"/>
<feBlend mode="normal" in="SourceGraphic" in2="BackgroundImageFix" result="shape"/>
<feGaussianBlur stdDeviation="0.75" result="effect1_foregroundBlur_31_15"/>
</filter>
<filter id="filter1_f_31_15" x="15.9998" y="7" width="10.0005" height="7.00024" filterUnits="userSpaceOnUse" color-interpolation-filters="sRGB">
<feFlood flood-opacity="0" result="BackgroundImageFix"/>
<feBlend mode="normal" in="SourceGraphic" in2="BackgroundImageFix" result="shape"/>
<feGaussianBlur stdDeviation="0.75" result="effect1_foregroundBlur_31_15"/>
</filter>
<filter id="filter2_f_31_15" x="6.375" y="6.875" width="8.75" height="5.75006" filterUnits="userSpaceOnUse" color-interpolation-filters="sRGB">
<feFlood flood-opacity="0" result="BackgroundImageFix"/>
<feBlend mode="normal" in="SourceGraphic" in2="BackgroundImageFix" result="shape"/>
<feGaussianBlur stdDeviation="0.75" result="effect1_foregroundBlur_31_15"/>
</filter>
<filter id="filter3_f_31_15" x="17.375" y="6.875" width="8.75" height="5.75006" filterUnits="userSpaceOnUse" color-interpolation-filters="sRGB">
<feFlood flood-opacity="0" result="BackgroundImageFix"/>
<feBlend mode="normal" in="SourceGraphic" in2="BackgroundImageFix" result="shape"/>
<feGaussianBlur stdDeviation="0.75" result="effect1_foregroundBlur_31_15"/>
</filter>
<radialGradient id="paint0_radial_31_15" cx="0" cy="0" r="1" gradientUnits="userSpaceOnUse" gradientTransform="translate(25.5 9) rotate(132.839) scale(37.5033)">
<stop stop-color="#FFF478"/>
<stop offset="0.474827" stop-color="#FFB02E"/>
<stop offset="1" stop-color="#F70A8D"/>
</radialGradient>
<radialGradient id="paint1_radial_31_15" cx="0" cy="0" r="1" gradientUnits="userSpaceOnUse" gradientTransform="translate(25.5 9) rotate(131.878) scale(38.9487)">
<stop stop-color="#FFF478"/>
<stop offset="0.474827" stop-color="#FFB02E"/>
<stop offset="1" stop-color="#F70A8D"/>
</radialGradient>
<radialGradient id="paint2_radial_31_15" cx="0" cy="0" r="1" gradientUnits="userSpaceOnUse" gradientTransform="translate(16 12.5) rotate(101.31) scale(17.8466 22.8581)">
<stop offset="0.787821" stop-color="#F59639" stop-opacity="0"/>
<stop offset="0.972509" stop-color="#FF7DCE"/>
</radialGradient>
<radialGradient id="paint3_radial_31_15" cx="0" cy="0" r="1" gradientUnits="userSpaceOnUse" gradientTransform="translate(18 14) rotate(135) scale(41.0122)">
<stop offset="0.314853" stop-opacity="0"/>
<stop offset="1"/>
</radialGradient>
<radialGradient id="paint4_radial_31_15" cx="0" cy="0" r="1" gradientUnits="userSpaceOnUse" gradientTransform="translate(16 17) rotate(77.692) scale(28.1469)">
<stop offset="0.507903" stop-color="#7D6133" stop-opacity="0"/>
<stop offset="1" stop-color="#715B32"/>
</radialGradient>
<radialGradient id="paint5_radial_31_15" cx="0" cy="0" r="1" gradientUnits="userSpaceOnUse" gradientTransform="translate(16.5 16.5) rotate(55.7131) scale(13.3135 9.65032)">
<stop stop-color="#FFB849"/>
<stop offset="1" stop-color="#FFB847" stop-opacity="0"/>
</radialGradient>
<radialGradient id="paint6_radial_31_15" cx="0" cy="0" r="1" gradientUnits="userSpaceOnUse" gradientTransform="translate(20.5 18) rotate(9.86581) scale(11.6726)">
<stop stop-color="#FFA64B"/>
<stop offset="0.900412" stop-color="#FFAE46" stop-opacity="0"/>
</radialGradient>
<radialGradient id="paint7_radial_31_15" cx="0" cy="0" r="1" gradientUnits="userSpaceOnUse" gradientTransform="translate(17.5 15) rotate(43.9708) scale(59.0529)">
<stop offset="0.185425" stop-opacity="0"/>
<stop offset="1" stop-opacity="0.4"/>
</radialGradient>
<radialGradient id="paint8_radial_31_15" cx="0" cy="0" r="1" gradientUnits="userSpaceOnUse" gradientTransform="translate(19.72 18.5) rotate(129.007) scale(7.72137 5.2163)">
<stop stop-color="#F63711"/>
<stop offset="1" stop-color="#E24A2C" stop-opacity="0"/>
</radialGradient>
<linearGradient id="paint9_linear_31_15" x1="23.5" y1="22.5" x2="20.3827" y2="16.0057" gradientUnits="userSpaceOnUse">
<stop stop-color="#D40F31"/>
<stop offset="0.340515" stop-color="#FF2375"/>
<stop offset="1" stop-color="#FF278E"/>
</linearGradient>
<radialGradient id="paint10_radial_31_15" cx="0" cy="0" r="1" gradientUnits="userSpaceOnUse" gradientTransform="translate(16 14) rotate(90) scale(6 9.18387)">
<stop offset="0.517632" stop-color="#4E2553"/>
<stop offset="0.702876" stop-color="#5B4852"/>
<stop offset="1" stop-color="#4E2553"/>
<stop offset="1" stop-color="#4E2553"/>
</radialGradient>
<radialGradient id="paint11_radial_31_15" cx="0" cy="0" r="1" gradientUnits="userSpaceOnUse" gradientTransform="translate(22.6667 21) rotate(56.3099) scale(2.4037 7.2111)">
<stop stop-color="#FF7291"/>
<stop offset="1" stop-color="#FF7291" stop-opacity="0"/>
</radialGradient>
</defs>
</svg>

<svg width="100%" height="100%" viewBox="0 0 32 32" xmlns="http://www.w3.org/2000/svg"><path fill="url(#a)" d="M15.999 29.998c9.334 0 13.999-6.268 13.999-14 0-7.73-4.665-13.998-14-13.998C6.665 2 2 8.268 2 15.999s4.664 13.999 13.999 13.999"/><path fill="url(#b)" d="M15.999 29.998c9.334 0 13.999-6.268 13.999-14 0-7.73-4.665-13.998-14-13.998C6.665 2 2 8.268 2 15.999s4.664 13.999 13.999 13.999"/><path fill="url(#c)" d="M15.999 29.998c9.334 0 13.999-6.268 13.999-14 0-7.73-4.665-13.998-14-13.998C6.665 2 2 8.268 2 15.999s4.664 13.999 13.999 13.999"/><path fill="url(#d)" fill-opacity=".6" d="M15.999 29.998c9.334 0 13.999-6.268 13.999-14 0-7.73-4.665-13.998-14-13.998C6.665 2 2 8.268 2 15.999s4.664 13.999 13.999 13.999"/><path fill="url(#e)" d="M15.999 29.998c9.334 0 13.999-6.268 13.999-14 0-7.73-4.665-13.998-14-13.998C6.665 2 2 8.268 2 15.999s4.664 13.999 13.999 13.999"/><path fill="url(#f)" d="M15.999 29.998c9.334 0 13.999-6.268 13.999-14 0-7.73-4.665-13.998-14-13.998C6.665 2 2 8.268 2 15.999s4.664 13.999 13.999 13.999"/><path fill="url(#g)" d="M15.999 29.998c9.334 0 13.999-6.268 13.999-14 0-7.73-4.665-13.998-14-13.998C6.665 2 2 8.268 2 15.999s4.664 13.999 13.999 13.999"/><path fill="url(#h)" d="M15.999 29.998c9.334 0 13.999-6.268 13.999-14 0-7.73-4.665-13.998-14-13.998C6.665 2 2 8.268 2 15.999s4.664 13.999 13.999 13.999"/><g filter="url(#i)" opacity=".5"><path stroke="#9A4609" stroke-linecap="round" stroke-width="2" d="M7.5 11.5s.25-2 2.5-2 2.5 2 2.5 2"/></g><g filter="url(#j)" opacity=".5"><path stroke="#9A4609" stroke-linecap="round" stroke-width="2" d="M18.5 11.5s.5-2 2.5-2 2.5 2 2.5 2"/></g><path stroke="#43273B" stroke-linecap="round" stroke-linejoin="round" stroke-width="2" d="M8 11s.25-2 2.5-2 2.5 2 2.5 2"/><g filter="url(#k)" opacity=".26"><path stroke="#fff" stroke-linecap="round" stroke-linejoin="round" stroke-width=".75" d="M8.25 10.75s.25-2 2.5-2 2.5 2 2.5 2"/></g><path stroke="#43273B" stroke-linecap="round" stroke-linejoin="round" stroke-width="2" d="M19 11s.5-2 2.5-2 2.5 2 2.5 2"/><g filter="url(#l)" opacity=".26"><path stroke="#fff" stroke-linecap="round" stroke-linejoin="round" stroke-width=".75" d="M19.25 10.75s.25-2 2.5-2 2.5 2 2.5 2"/></g><path fill="url(#m)" d="M11.62 18.5h6.48l5.4 3-3.78 8L10 26z"/><path fill="url(#n)" d="M18.368 22.368 15.5 19.5l8-3.5.955 2.292a3.734 3.734 0 0 1-6.087 4.076"/><path stroke="url(#o)" stroke-linecap="round" stroke-width="2" d="M9 16c.5.667 2.5 2.5 7 2.5s6.5-1.833 7-2.5"/><path fill="url(#p)" fill-rule="evenodd" d="m18.176 22.176.192.192a3.734 3.734 0 0 0 6.087-4.076l-.267-.641A4 4 0 0 0 22 17c-.424 0-.832.066-1.215.188l-.756.33a4 4 0 0 0-1.854 4.657" clip-rule="evenodd"/><defs><radialGradient id="a" cx="0" cy="0" r="1" gradientTransform="rotate(132.839 10.786 10.065)scale(37.5033)" gradientUnits="userSpaceOnUse"><stop stop-color="#FFF478"/><stop offset=".475" stop-color="#FFB02E"/><stop offset="1" stop-color="#F70A8D"/></radialGradient><radialGradient id="b" cx="0" cy="0" r="1" gradientTransform="rotate(131.878 10.74 10.193)scale(38.9487)" gradientUnits="userSpaceOnUse"><stop stop-color="#FFF478"/><stop offset=".475" stop-color="#FFB02E"/><stop offset="1" stop-color="#F70A8D"/></radialGradient><radialGradient id="c" cx="0" cy="0" r="1" gradientTransform="rotate(101.31 2.876 12.808)scale(17.8466 22.8581)" gradientUnits="userSpaceOnUse"><stop offset=".788" stop-color="#F59639" stop-opacity="0"/><stop offset=".973" stop-color="#FF7DCE"/></radialGradient><radialGradient id="d" cx="0" cy="0" r="1" gradientTransform="matrix(-29 29 -29 -29 18 14)" gradientUnits="userSpaceOnUse"><stop offset=".315" stop-opacity="0"/><stop offset="1"/></radialGradient><radialGradient id="e" cx="0" cy="0" r="1" gradientTransform="rotate(77.692 -2.555 18.434)scale(28.1469)" gradientUnits="userSpaceOnUse"><stop offset=".508" stop-color="#7D6133" stop-opacity="0"/><stop offset="1" stop-color="#715B32"/></radialGradient><radialGradient id="f" cx="0" cy="0" r="1" gradientTransform="rotate(55.713 -7.36 23.86)scale(13.3135 9.65032)" gradientUnits="userSpaceOnUse"><stop stop-color="#FFB849"/><stop offset="1" stop-color="#FFB847" stop-opacity="0"/></radialGradient><radialGradient id="g" cx="0" cy="0" r="1" gradientTransform="matrix(11.49998 2 -2 11.49998 20.5 18)" gradientUnits="userSpaceOnUse"><stop stop-color="#FFA64B"/><stop offset=".9" stop-color="#FFAE46" stop-opacity="0"/></radialGradient><radialGradient id="h" cx="0" cy="0" r="1" gradientTransform="rotate(43.971 -9.827 29.173)scale(59.0529)" gradientUnits="userSpaceOnUse"><stop offset=".185" stop-opacity="0"/><stop offset="1" stop-opacity=".4"/></radialGradient><radialGradient id="m" cx="0" cy="0" r="1" gradientTransform="rotate(129.007 5.449 13.952)scale(7.72137 5.2163)" gradientUnits="userSpaceOnUse"><stop stop-color="#F63711"/><stop offset="1" stop-color="#E24A2C" stop-opacity="0"/></radialGradient><radialGradient id="o" cx="0" cy="0" r="1" gradientTransform="matrix(0 6 -9.18387 0 16 14)" gradientUnits="userSpaceOnUse"><stop offset=".518" stop-color="#4E2553"/><stop offset=".703" stop-color="#5B4852"/><stop offset="1" stop-color="#4E2553"/><stop offset="1" stop-color="#4E2553"/></radialGradient><radialGradient id="p" cx="0" cy="0" r="1" gradientTransform="matrix(1.33333 2 -6 4 22.667 21)" gradientUnits="userSpaceOnUse"><stop stop-color="#FF7291"/><stop offset="1" stop-color="#FF7291" stop-opacity="0"/></radialGradient><filter id="i" width="10" height="7" x="5" y="7" color-interpolation-filters="sRGB" filterUnits="userSpaceOnUse"><feFlood flood-opacity="0" result="BackgroundImageFix"/><feBlend in="SourceGraphic" in2="BackgroundImageFix" result="shape"/><feGaussianBlur result="effect1_foregroundBlur_31_15" stdDeviation=".75"/></filter><filter id="j" width="10.001" height="7" x="16" y="7" color-interpolation-filters="sRGB" filterUnits="userSpaceOnUse"><feFlood flood-opacity="0" result="BackgroundImageFix"/><feBlend in="SourceGraphic" in2="BackgroundImageFix" result="shape"/><feGaussianBlur result="effect1_foregroundBlur_31_15" stdDeviation=".75"/></filter><filter id="k" width="8.75" height="5.75" x="6.375" y="6.875" color-interpolation-filters="sRGB" filterUnits="userSpaceOnUse"><feFlood flood-opacity="0" result="BackgroundImageFix"/><feBlend in="SourceGraphic" in2="BackgroundImageFix" result="shape"/><feGaussianBlur result="effect1_foregroundBlur_31_15" stdDeviation=".75"/></filter><filter id="l" width="8.75" height="5.75" x="17.375" y="6.875" color-interpolation-filters="sRGB" filterUnits="userSpaceOnUse"><feFlood flood-opacity="0" result="BackgroundImageFix"/><feBlend in="SourceGraphic" in2="BackgroundImageFix" result="shape"/><feGaussianBlur result="effect1_foregroundBlur_31_15" stdDeviation=".75"/></filter><linearGradient id="n" x1="23.5" x2="20.383" y1="22.5" y2="16.006" gradientUnits="userSpaceOnUse"><stop stop-color="#D40F31"/><stop offset=".341" stop-color="#FF2375"/><stop offset="1" stop-color="#FF278E"/></linearGradient></defs></svg>
